public/svgs/unlock.svg

<svg height="12" viewBox="0 0 10 12" width="10" xmlns="http://www.w3.org/2000/svg"><g fill="#0e1c2a"><path d="m8.56 4.13h-5.18c.030631-.06592123.04763742-.1373482.05-.21v-1.54c-.00000001-.49302652.2630265-.94860182.68999999-1.19511508s.95302653-.24651326 1.38000001 0c.4269735.24651326.69000001.70208856.69 1.19511508 0 .27614237.22385763.5.5.5s.5-.22385763.5-.5c0-1.3144377-1.0655623-2.38-2.38-2.38s-2.38 1.0655623-2.38 2.38v1.54c-.00946616.06967997-.00946616.14032003 0 .21h-1.43c-.55228475 0-1 .44771525-1 1v5.63c0 .5522847.44771525 1 1 1h7.56c.55228475 0 1-.4477153 1-1v-5.67c-.02148118-.53660392-.46296646-.96042979-1-.96zm-7.56 6.56v-5.56h7.56v5.6z"/><path d="m8.56 4.13h-5.18c.030631-.06592123.04763742-.1373482.05-.21v-1.54c-.00000001-.49302652.2630265-.94860182.68999999-1.19511508s.95302653-.24651326 1.38000001 0c.4269735.24651326.69000001.70208856.69 1.19511508 0 .27614237.22385763.5.5.5s.5-.22385763.5-.5c0-1.3144377-1.0655623-2.38-2.38-2.38s-2.38 1.0655623-2.38 2.38v1.54c-.00946616.06967997-.00946616.14032003 0 .21h-1.43c-.55228475 0-1 .44771525-1 1v5.63c0 .5522847.44771525 1 1 1h7.56c.55228475 0 1-.4477153 1-1v-5.67c-.02148118-.53660392-.46296646-.96042979-1-.96zm-7.56 6.56v-5.56h7.56v5.6z"/></g></svg>

<?xml version="1.0" encoding="UTF-8"?>
<svg width="10px" height="12px" viewBox="0 0 10 12" version="1.1" xmlns="http://www.w3.org/2000/svg" xmlns:xlink="http://www.w3.org/1999/xlink">
    <!-- Generator: Sketch 63.1 (92452) - https://sketch.com -->
    <desc>Created with Sketch.</desc>
    <g id="Page-1" stroke="none" stroke-width="1" fill="none" fill-rule="evenodd">
        <g id="Icons" transform="translate(-17.000000, -42.000000)" fill="#0E1C2A" fill-rule="nonzero">
            <g id="unlock" transform="translate(17.000000, 42.000000)">
                <path d="M8.56,4.13 L3.38,4.13 C3.410631,4.06407877 3.42763742,3.9926518 3.43,3.92 L3.43,2.38 C3.42999999,1.88697348 3.6930265,1.43139818 4.11999999,1.18488492 C4.54697348,0.938371655 5.07302652,0.938371655 5.5,1.18488492 C5.9269735,1.43139818 6.19000001,1.88697348 6.19,2.38 C6.19,2.65614237 6.41385763,2.88 6.69,2.88 C6.96614237,2.88 7.19,2.65614237 7.19,2.38 C7.19,1.0655623 6.1244377,-8.8817842e-16 4.81,-8.8817842e-16 C3.4955623,-8.8817842e-16 2.43,1.0655623 2.43,2.38 L2.43,3.92 C2.42053384,3.98967997 2.42053384,4.06032003 2.43,4.13 L1,4.13 C0.44771525,4.13 0,4.57771525 0,5.13 L0,10.76 C0,11.3122847 0.44771525,11.76 1,11.76 L8.56,11.76 C9.11228475,11.76 9.56,11.3122847 9.56,10.76 L9.56,5.09 C9.53851882,4.55339608 9.09703354,4.12957021 8.56,4.13 Z M1,10.69 L1,5.13 L8.56,5.13 L8.56,10.73 L1,10.69 Z" id="Shape"></path>
                <path d="M8.56,4.13 L3.38,4.13 C3.410631,4.06407877 3.42763742,3.9926518 3.43,3.92 L3.43,2.38 C3.42999999,1.88697348 3.6930265,1.43139818 4.11999999,1.18488492 C4.54697348,0.938371655 5.07302652,0.938371655 5.5,1.18488492 C5.9269735,1.43139818 6.19000001,1.88697348 6.19,2.38 C6.19,2.65614237 6.41385763,2.88 6.69,2.88 C6.96614237,2.88 7.19,2.65614237 7.19,2.38 C7.19,1.0655623 6.1244377,-8.8817842e-16 4.81,-8.8817842e-16 C3.4955623,-8.8817842e-16 2.43,1.0655623 2.43,2.38 L2.43,3.92 C2.42053384,3.98967997 2.42053384,4.06032003 2.43,4.13 L1,4.13 C0.44771525,4.13 0,4.57771525 0,5.13 L0,10.76 C0,11.3122847 0.44771525,11.76 1,11.76 L8.56,11.76 C9.11228475,11.76 9.56,11.3122847 9.56,10.76 L9.56,5.09 C9.53851882,4.55339608 9.09703354,4.12957021 8.56,4.13 Z M1,10.69 L1,5.13 L8.56,5.13 L8.56,10.73 L1,10.69 Z" id="Shape"></path>
            </g>
        </g>
    </g>
</svg>
